packages/core/src/svgs/guild.svg

<svg width="24" height="24" viewBox="0 0 24 24" fill="none" xmlns="http://www.w3.org/2000/svg">
<g clip-path="url(#clip0_31_11164)">
<path d="M0 0H24V24H0V0Z" fill="#00ADB4"/>
<path d="M11.9999 19.2858C14.1599 18.0686 16.2984 16.8558 18.4284 15.6429V8.34864L11.9999 4.71436L10.7141 5.43007V6.33007C11.2413 6.03007 11.4684 5.91007 11.9999 5.61436C13.8599 6.66864 15.707 7.74436 17.5713 8.79864V15.2058C15.7113 16.2601 13.8599 17.3358 11.9999 18.3901C10.1141 17.3272 8.31415 16.2558 6.42843 15.1886V7.90293C6.14557 8.0615 5.85415 8.19007 5.57129 8.34864V15.6515L11.9999 19.2858ZM11.9999 17.4644C13.5813 16.5729 15.137 15.6386 16.7141 14.7472V9.25721C15.137 8.37007 13.5856 7.4315 11.9999 6.54007L9.857 7.74864V5.92293C9.56557 6.09436 9.23986 6.36864 8.99986 6.5015V9.22721C10.0927 8.61007 10.9456 8.04007 11.9999 7.44436C13.3027 8.17721 14.5584 8.98721 15.857 9.72436V14.2886C14.5113 15.0472 13.3499 15.8058 11.9999 16.5686C10.6541 15.8015 9.50129 15.0429 8.14272 14.2758V7.00721C7.85557 7.16578 7.52557 7.30721 7.28557 7.44007V14.7429C8.89272 15.6515 10.3927 16.5601 11.9999 17.4686V17.4644ZM14.1427 11.0786V10.6286C13.3413 10.1744 12.8141 9.72864 11.9999 9.26578C11.2627 9.68578 10.5856 10.2172 9.857 10.6286V13.3886C10.6499 13.8344 11.1856 14.2886 11.9999 14.7515C12.8099 14.2929 13.337 13.8386 14.1427 13.3801V12.9258C14.3999 12.7801 14.7213 12.6386 14.9999 12.4801V13.8301C13.9284 14.4386 13.0713 15.0429 11.9999 15.6472C10.9799 15.0729 10.0156 14.4086 8.99986 13.8344V10.1915C9.88272 9.69007 10.5556 9.18436 11.4556 8.67436L11.9956 8.37436C13.067 8.97436 13.9241 9.58293 14.9999 10.1872V11.5415C14.7256 11.3829 14.4127 11.2329 14.1427 11.0829V11.0786ZM13.7141 11.0915V11.8201C13.157 11.5758 12.5613 11.3272 11.9999 11.0915C11.8284 11.1772 11.6227 11.3058 11.4556 11.3915C12.2056 11.6058 13.0113 11.8029 13.7099 12.0044V12.9215C13.1827 13.2215 12.5313 13.5172 12.0041 13.8172C11.4599 13.5129 10.8084 13.2129 10.2856 12.9172V12.2315C10.847 12.4029 11.4856 12.6301 11.9999 12.9172L12.557 12.6044C11.807 12.3901 10.9884 12.1929 10.2899 11.9958V11.0829C10.8213 10.7872 11.4727 10.4872 12.0041 10.1872C12.5399 10.4915 13.1913 10.7915 13.7141 11.0872V11.0915ZM14.4213 11.6915L14.5027 11.7344L14.657 11.8201L14.5456 11.8886L14.4256 11.9572C14.4056 11.9472 14.3856 11.9372 14.3656 11.9272L14.1856 11.8244L14.3399 11.7386C14.3671 11.7232 14.3943 11.7075 14.4213 11.6915ZM14.6356 12.2144L14.7127 12.1715C14.708 12.1244 14.7037 12.0773 14.6999 12.0301L14.687 11.9144L14.5584 11.9872L14.4684 12.0386V12.0986L14.4813 12.3001L14.6399 12.2144H14.6356ZM14.1427 12.1886V11.9229L14.3656 12.0344V12.2958L14.1427 12.1886Z" fill="white"/>
</g>
<defs>
<clipPath id="clip0_31_11164">
<rect width="24" height="24" fill="white"/>
</clipPath>
</defs>
</svg>

<svg xmlns="http://www.w3.org/2000/svg" width="24" height="24" fill="none" viewBox="0 0 24 24"><g clip-path="url(#a)"><path fill="#00ADB4" d="M0 0h24v24H0z"/><path fill="#fff" d="M12 19.286c2.16-1.217 4.298-2.43 6.428-3.643V8.349L12 4.714l-1.286.716v.9c.527-.3.754-.42 1.286-.716 1.86 1.055 3.707 2.13 5.571 3.185v6.407c-1.86 1.054-3.711 2.13-5.571 3.184-1.886-1.063-3.686-2.134-5.572-3.201V7.903c-.282.159-.574.287-.857.446v7.303zm0-1.822c1.581-.891 3.137-1.825 4.714-2.717v-5.49C15.137 8.37 13.586 7.432 12 6.54L9.857 7.75V5.923c-.291.171-.617.446-.857.579v2.725c1.093-.617 1.946-1.187 3-1.783 1.303.733 2.558 1.543 3.857 2.28v4.565c-1.346.758-2.507 1.517-3.857 2.28-1.346-.767-2.499-1.526-3.857-2.293V7.007c-.287.159-.617.3-.857.433v7.303c1.607.909 3.107 1.817 4.714 2.726zm2.143-6.385v-.45c-.802-.455-1.329-.9-2.143-1.363-.737.42-1.414.951-2.143 1.363v2.76c.793.445 1.329.9 2.143 1.363.81-.46 1.337-.913 2.143-1.372v-.454c.257-.146.578-.287.857-.446v1.35c-1.072.609-1.929 1.213-3 1.817-1.02-.574-1.984-1.238-3-1.813v-3.642c.883-.502 1.556-1.008 2.456-1.518l.54-.3c1.071.6 1.928 1.209 3.004 1.813v1.354c-.274-.158-.587-.308-.857-.458zm-.429.012v.73c-.557-.245-1.153-.494-1.714-.73-.172.086-.377.215-.544.3.75.215 1.555.412 2.254.613v.918c-.527.3-1.179.595-1.706.895-.544-.304-1.196-.604-1.718-.9v-.685c.561.17 1.2.398 1.714.685l.557-.313c-.75-.214-1.569-.411-2.267-.608v-.913c.531-.296 1.183-.596 1.714-.896.536.305 1.187.604 1.71.9zm.707.6.082.043.154.086-.111.069-.12.068-.06-.03-.18-.103.154-.085zm.215.523.077-.043-.013-.14-.013-.117-.129.073-.09.052v.06l.013.201.159-.086zm-.493-.025v-.266l.223.111v.262z"/></g><defs><clipPath id="a"><path fill="#fff" d="M0 0h24v24H0z"/></clipPath></defs></svg>
